X:501
T:Reel 501
M:4/4
K:Amaj
L:1/8
ED|CB,A,C B,A,G,B,|A,2CA, AFED|CA,A,C B,A,B,C|D2 (3CDE FBBG|CA,A,C B,A,G,B,| (3CB,A, EC DFED|CA,CA, B,A,F,E,|G,A,B,C D2|EF|GEFE  (3EDE FG|A2AF ECA,C|D2FD C2EC|B,A,B,C D2ED|CD (3EFE FG (3AGA |ECAC B,2B,C|A,2A,D B,CDF|ECB,C A,2|
